X:119
T: DORT UNTEN IN DER GRUENEN SEE
N: K2169B
O: Europa, Mitteleuropa, Deutschland, Mainz
R: Kinder - Lied, Reigen, Tanz - Spiel
M: 4/4
L: 1/8
K: F
F2 | c2c2d2d2 | c2c2A2z2
c2c2d2d2 | c4A2
F2 | c2c2d2d2 | c2c2A2z2
c2c2d2d2 | c4A2z2
c2A2c2A2 | c2f2d2z
d | c2Adc2AA | c2d2c2

